X:23
T:Steyrer Tanz in C, nr. 5
C:traditionell
R:Steirer
A:Hallstatt, Salzkammergut
B:Corpus Musicae Popularis Austriacae (COMPA), 5.Band: J.M.Schmalnauer " Tanz Musik", Verlag Boehlau, Wien 1996
S:manuscript des Johann Michael Schmalnauer um 1820
N:im der quelle in C
Z:abc transcription Simon Wascher
F:http://simonwascher.info/TradArchiv/
M:3/4
L:1/8
K:C
V:1
%violino 1mo
P:g.Ap:
EF |\
G2 (dG)(fG) | EG,EG,EF | DG,DG,DE | C2 EGce |\
G2 (dG)(fG) | EG,EG,EF | DG,DG,DE | "in G" C4 :|
V:2
%violino 2do
CD |\
E2 (BD)(dD) | GEGEGA | FDFDFG | E2 CEGc |\
E2 (BD)(dD) | GEGEGA | FDFDFG | E4 :|
